src/lib/images/svgs/icon-gpu.svg

<?xml version="1.0" encoding="UTF-8"?> <svg xmlns="http://www.w3.org/2000/svg" xmlns:xlink="http://www.w3.org/1999/xlink" width="64px" height="64px" viewBox="0 0 64 64" version="1.1"> <g id="surface1"> <path style=" stroke:none;fill-rule:nonzero;fill:rgb(93.72549%,26.666667%,26.666667%);fill-opacity:1;" d="M 44.476562 33.949219 C 39.308594 33.949219 35.109375 29.75 35.109375 24.582031 C 35.109375 19.417969 39.308594 15.214844 44.476562 15.214844 C 49.640625 15.214844 53.84375 19.417969 53.84375 24.582031 C 53.84375 29.75 49.640625 33.949219 44.476562 33.949219 Z M 44.476562 16.355469 C 39.9375 16.355469 36.246094 20.046875 36.246094 24.582031 C 36.246094 29.121094 39.9375 32.8125 44.476562 32.8125 C 49.011719 32.8125 52.707031 29.121094 52.707031 24.582031 C 52.707031 20.046875 49.015625 16.355469 44.476562 16.355469 Z M 44.476562 16.355469 "/> <path style=" stroke:none;fill-rule:nonzero;fill:rgb(93.72549%,26.666667%,26.666667%);fill-opacity:1;" d="M 44.476562 27.5625 C 42.832031 27.5625 41.496094 26.226562 41.496094 24.582031 C 41.496094 22.9375 42.832031 21.601562 44.476562 21.601562 C 46.121094 21.601562 47.457031 22.9375 47.457031 24.582031 C 47.457031 26.226562 46.121094 27.5625 44.476562 27.5625 Z M 44.476562 22.738281 C 43.460938 22.738281 42.632812 23.566406 42.632812 24.582031 C 42.632812 25.597656 43.460938 26.425781 44.476562 26.425781 C 45.492188 26.425781 46.320312 25.597656 46.320312 24.582031 C 46.320312 23.566406 45.492188 22.738281 44.476562 22.738281 Z M 44.476562 22.738281 "/> <path style=" stroke:none;fill-rule:nonzero;fill:rgb(93.72549%,26.666667%,26.666667%);fill-opacity:1;" d="M 45.832031 23.160156 C 45.628906 23.160156 45.429688 23.046875 45.328125 22.855469 C 45.183594 22.574219 45.289062 22.230469 45.570312 22.085938 C 46.761719 21.460938 47.5 20.238281 47.5 18.894531 C 47.5 18.03125 47.191406 17.195312 46.625 16.542969 C 46.417969 16.304688 46.445312 15.945312 46.683594 15.738281 C 46.921875 15.535156 47.277344 15.558594 47.484375 15.796875 C 48.230469 16.65625 48.636719 17.757812 48.636719 18.894531 C 48.636719 20.664062 47.664062 22.273438 46.097656 23.09375 C 46.011719 23.140625 45.921875 23.160156 45.832031 23.160156 Z M 45.832031 23.160156 "/> <path style=" stroke:none;fill-rule:nonzero;fill:rgb(93.72549%,26.666667%,26.666667%);fill-opacity:1;" d="M 48.09375 24.894531 C 47.621094 24.894531 47.144531 24.820312 46.675781 24.675781 C 46.375 24.582031 46.207031 24.261719 46.300781 23.964844 C 46.394531 23.664062 46.714844 23.496094 47.015625 23.589844 C 48.296875 23.992188 49.6875 23.648438 50.636719 22.699219 C 51.25 22.089844 51.621094 21.277344 51.683594 20.417969 C 51.707031 20.105469 51.980469 19.867188 52.292969 19.890625 C 52.605469 19.914062 52.839844 20.183594 52.816406 20.5 C 52.734375 21.632812 52.25 22.699219 51.441406 23.503906 C 50.535156 24.40625 49.332031 24.894531 48.09375 24.894531 Z M 48.09375 24.894531 "/> <path style=" stroke:none;fill-rule:nonzero;fill:rgb(93.72549%,26.666667%,26.666667%);fill-opacity:1;" d="M 50.164062 28.746094 C 48.394531 28.746094 46.785156 27.769531 45.964844 26.203125 C 45.816406 25.925781 45.925781 25.582031 46.203125 25.4375 C 46.480469 25.289062 46.824219 25.398438 46.972656 25.675781 C 47.597656 26.867188 48.820312 27.609375 50.164062 27.609375 C 51.03125 27.609375 51.863281 27.296875 52.519531 26.730469 C 52.753906 26.523438 53.113281 26.550781 53.320312 26.789062 C 53.527344 27.027344 53.5 27.386719 53.261719 27.589844 C 52.402344 28.335938 51.300781 28.746094 50.164062 28.746094 Z M 50.164062 28.746094 "/> <path style=" stroke:none;fill-rule:nonzero;fill:rgb(93.72549%,26.666667%,26.666667%);fill-opacity:1;" d="M 48.601562 32.925781 C 48.589844 32.925781 48.574219 32.925781 48.5625 32.925781 C 47.429688 32.84375 46.359375 32.355469 45.554688 31.546875 C 44.304688 30.296875 43.855469 28.46875 44.382812 26.78125 C 44.476562 26.480469 44.796875 26.316406 45.09375 26.410156 C 45.394531 26.503906 45.5625 26.820312 45.46875 27.121094 C 45.066406 28.40625 45.410156 29.792969 46.359375 30.746094 C 46.96875 31.355469 47.78125 31.726562 48.640625 31.789062 C 48.953125 31.8125 49.191406 32.085938 49.167969 32.398438 C 49.148438 32.695312 48.898438 32.925781 48.601562 32.925781 Z M 48.601562 32.925781 "/> <path style=" stroke:none;fill-rule:nonzero;fill:rgb(93.72549%,26.666667%,26.666667%);fill-opacity:1;" d="M 41.898438 33.566406 C 41.738281 33.566406 41.578125 33.5 41.46875 33.367188 C 40.722656 32.507812 40.3125 31.40625 40.3125 30.269531 C 40.3125 28.503906 41.289062 26.890625 42.855469 26.070312 C 43.132812 25.925781 43.476562 26.03125 43.621094 26.3125 C 43.769531 26.589844 43.660156 26.933594 43.382812 27.078125 C 42.191406 27.703125 41.449219 28.925781 41.449219 30.269531 C 41.449219 31.136719 41.761719 31.972656 42.328125 32.625 C 42.53125 32.863281 42.507812 33.222656 42.269531 33.425781 C 42.160156 33.519531 42.027344 33.566406 41.898438 33.566406 Z M 41.898438 33.566406 "/> <path style=" stroke:none;fill-rule:nonzero;fill:rgb(93.72549%,26.666667%,26.666667%);fill-opacity:1;" d="M 36.703125 29.277344 C 36.691406 29.277344 36.675781 29.277344 36.664062 29.277344 C 36.351562 29.253906 36.113281 28.980469 36.136719 28.667969 C 36.21875 27.535156 36.707031 26.464844 37.511719 25.660156 C 38.761719 24.410156 40.589844 23.960938 42.277344 24.488281 C 42.578125 24.582031 42.746094 24.902344 42.652344 25.199219 C 42.558594 25.5 42.238281 25.667969 41.9375 25.574219 C 40.65625 25.171875 39.265625 25.515625 38.316406 26.464844 C 37.703125 27.078125 37.332031 27.886719 37.269531 28.746094 C 37.25 29.046875 37 29.277344 36.703125 29.277344 Z M 36.703125 29.277344 "/> <path style=" stroke:none;fill-rule:nonzero;fill:rgb(93.72549%,26.666667%,26.666667%);fill-opacity:1;" d="M 42.484375 23.792969 C 42.28125 23.792969 42.082031 23.683594 41.980469 23.488281 C 41.355469 22.296875 40.132812 21.558594 38.789062 21.558594 C 37.921875 21.558594 37.085938 21.867188 36.433594 22.433594 C 36.195312 22.640625 35.835938 22.613281 35.632812 22.375 C 35.429688 22.136719 35.453125 21.777344 35.691406 21.574219 C 36.550781 20.828125 37.652344 20.421875 38.789062 20.421875 C 40.558594 20.421875 42.167969 21.394531 42.988281 22.960938 C 43.132812 23.238281 43.027344 23.582031 42.75 23.730469 C 42.664062 23.773438 42.574219 23.792969 42.484375 23.792969 Z M 42.484375 23.792969 "/> <path style=" stroke:none;fill-rule:nonzero;fill:rgb(93.72549%,26.666667%,26.666667%);fill-opacity:1;" d="M 44.027344 22.78125 C 43.972656 22.78125 43.914062 22.773438 43.859375 22.757812 C 43.558594 22.664062 43.390625 22.34375 43.484375 22.042969 C 43.886719 20.761719 43.542969 19.371094 42.59375 18.421875 C 41.980469 17.808594 41.171875 17.4375 40.308594 17.375 C 39.996094 17.351562 39.761719 17.082031 39.785156 16.769531 C 39.804688 16.453125 40.082031 16.21875 40.390625 16.242188 C 41.523438 16.324219 42.59375 16.8125 43.398438 17.617188 C 44.648438 18.867188 45.097656 20.691406 44.574219 22.382812 C 44.492188 22.628906 44.269531 22.78125 44.027344 22.78125 Z M 44.027344 22.78125 "/> <path style=" stroke:none;fill-rule:nonzero;fill:rgb(93.72549%,26.666667%,26.666667%);fill-opacity:1;" d="M 40.257812 17.429688 C 39.941406 17.429688 39.6875 17.175781 39.6875 16.859375 C 39.6875 16.546875 39.941406 16.289062 40.257812 16.289062 C 40.570312 16.289062 40.824219 16.546875 40.824219 16.859375 C 40.824219 17.171875 40.570312 17.429688 40.257812 17.429688 Z M 40.257812 17.429688 "/> <path style=" stroke:none;fill-rule:nonzero;fill:rgb(93.72549%,26.666667%,26.666667%);fill-opacity:1;" d="M 56.460938 37.101562 L 13.039062 37.101562 C 12.726562 37.101562 12.472656 36.84375 12.472656 36.53125 L 12.472656 12.632812 C 12.472656 12.320312 12.726562 12.066406 13.039062 12.066406 L 56.460938 12.066406 C 56.777344 12.066406 57.03125 12.320312 57.03125 12.632812 L 57.03125 36.53125 C 57.03125 36.84375 56.777344 37.101562 56.460938 37.101562 Z M 13.609375 35.960938 L 55.890625 35.960938 L 55.890625 13.203125 L 13.609375 13.203125 Z M 13.609375 35.960938 "/> <path style=" stroke:none;fill-rule:nonzero;fill:rgb(93.72549%,26.666667%,26.666667%);fill-opacity:1;" d="M 29.625 20.289062 C 29.480469 20.289062 29.335938 20.234375 29.222656 20.121094 C 29 19.902344 29 19.539062 29.222656 19.320312 L 36.304688 12.238281 C 36.527344 12.015625 36.886719 12.015625 37.109375 12.238281 C 37.332031 12.457031 37.332031 12.820312 37.109375 13.042969 L 30.027344 20.121094 C 29.917969 20.234375 29.769531 20.289062 29.625 20.289062 Z M 29.625 20.289062 "/> <path style=" stroke:none;fill-rule:nonzero;fill:rgb(93.72549%,26.666667%,26.666667%);fill-opacity:1;" d="M 36.707031 37.101562 C 36.5625 37.101562 36.414062 37.042969 36.304688 36.933594 L 29.222656 29.851562 C 29 29.628906 29 29.269531 29.222656 29.046875 C 29.445312 28.828125 29.804688 28.828125 30.027344 29.046875 L 37.109375 36.128906 C 37.328125 36.351562 37.328125 36.710938 37.109375 36.933594 C 36.996094 37.042969 36.851562 37.101562 36.707031 37.101562 Z M 36.707031 37.101562 "/> <path style=" stroke:none;fill-rule:nonzero;fill:rgb(93.72549%,26.666667%,26.666667%);fill-opacity:1;" d="M 49.789062 43.128906 L 19.710938 43.128906 C 19.398438 43.128906 19.144531 42.875 19.144531 42.5625 L 19.144531 36.53125 C 19.144531 36.21875 19.398438 35.960938 19.710938 35.960938 L 49.789062 35.960938 C 50.105469 35.960938 50.359375 36.21875 50.359375 36.53125 L 50.359375 42.5625 C 50.359375 42.875 50.105469 43.128906 49.789062 43.128906 Z M 20.28125 41.992188 L 49.222656 41.992188 L 49.222656 37.101562 L 20.28125 37.101562 Z M 20.28125 41.992188 "/> <path style=" stroke:none;fill-rule:nonzero;fill:rgb(93.72549%,26.666667%,26.666667%);fill-opacity:1;" d="M 24.132812 43.128906 C 23.820312 43.128906 23.566406 42.875 23.566406 42.5625 L 23.566406 40.476562 C 23.566406 40.164062 23.820312 39.910156 24.132812 39.910156 C 24.449219 39.910156 24.703125 40.164062 24.703125 40.476562 L 24.703125 42.5625 C 24.703125 42.875 24.449219 43.128906 24.132812 43.128906 Z M 24.132812 43.128906 "/> <path style=" stroke:none;fill-rule:nonzero;fill:rgb(93.72549%,26.666667%,26.666667%);fill-opacity:1;" d="M 27.675781 43.128906 C 27.359375 43.128906 27.105469 42.875 27.105469 42.5625 L 27.105469 40.476562 C 27.105469 40.164062 27.359375 39.910156 27.675781 39.910156 C 27.988281 39.910156 28.242188 40.164062 28.242188 40.476562 L 28.242188 42.5625 C 28.242188 42.875 27.988281 43.128906 27.675781 43.128906 Z M 27.675781 43.128906 "/> <path style=" stroke:none;fill-rule:nonzero;fill:rgb(93.72549%,26.666667%,26.666667%);fill-opacity:1;" d="M 31.210938 43.128906 C 30.898438 43.128906 30.644531 42.875 30.644531 42.5625 L 30.644531 40.476562 C 30.644531 40.164062 30.898438 39.910156 31.210938 39.910156 C 31.527344 39.910156 31.78125 40.164062 31.78125 40.476562 L 31.78125 42.5625 C 31.78125 42.875 31.527344 43.128906 31.210938 43.128906 Z M 31.210938 43.128906 "/> <path style=" stroke:none;fill-rule:nonzero;fill:rgb(93.72549%,26.666667%,26.666667%);fill-opacity:1;" d="M 34.75 43.128906 C 34.4375 43.128906 34.183594 42.875 34.183594 42.5625 L 34.183594 40.476562 C 34.183594 40.164062 34.4375 39.910156 34.75 39.910156 C 35.066406 39.910156 35.320312 40.164062 35.320312 40.476562 L 35.320312 42.5625 C 35.320312 42.875 35.066406 43.128906 34.75 43.128906 Z M 34.75 43.128906 "/> <path style=" stroke:none;fill-rule:nonzero;fill:rgb(93.72549%,26.666667%,26.666667%);fill-opacity:1;" d="M 38.289062 43.128906 C 37.976562 43.128906 37.722656 42.875 37.722656 42.5625 L 37.722656 40.476562 C 37.722656 40.164062 37.976562 39.910156 38.289062 39.910156 C 38.605469 39.910156 38.859375 40.164062 38.859375 40.476562 L 38.859375 42.5625 C 38.859375 42.875 38.605469 43.128906 38.289062 43.128906 Z M 38.289062 43.128906 "/> <path style=" stroke:none;fill-rule:nonzero;fill:rgb(93.72549%,26.666667%,26.666667%);fill-opacity:1;" d="M 41.828125 43.128906 C 41.515625 43.128906 41.261719 42.875 41.261719 42.5625 L 41.261719 40.476562 C 41.261719 40.164062 41.515625 39.910156 41.828125 39.910156 C 42.144531 39.910156 42.398438 40.164062 42.398438 40.476562 L 42.398438 42.5625 C 42.398438 42.875 42.144531 43.128906 41.828125 43.128906 Z M 41.828125 43.128906 "/> <path style=" stroke:none;fill-rule:nonzero;fill:rgb(93.72549%,26.666667%,26.666667%);fill-opacity:1;" d="M 45.367188 43.128906 C 45.054688 43.128906 44.800781 42.875 44.800781 42.5625 L 44.800781 40.476562 C 44.800781 40.164062 45.054688 39.910156 45.367188 39.910156 C 45.683594 39.910156 45.9375 40.164062 45.9375 40.476562 L 45.9375 42.5625 C 45.9375 42.875 45.683594 43.128906 45.367188 43.128906 Z M 45.367188 43.128906 "/> <path style=" stroke:none;fill-rule:nonzero;fill:rgb(93.72549%,26.666667%,26.666667%);fill-opacity:1;" d="M 13.042969 22.097656 L 9.273438 22.097656 C 8.957031 22.097656 8.703125 21.84375 8.703125 21.53125 L 8.703125 17.761719 C 8.703125 17.445312 8.957031 17.191406 9.273438 17.191406 L 13.042969 17.191406 C 13.355469 17.191406 13.609375 17.445312 13.609375 17.761719 L 13.609375 21.53125 C 13.609375 21.84375 13.355469 22.097656 13.042969 22.097656 Z M 9.839844 20.960938 L 12.472656 20.960938 L 12.472656 18.328125 L 9.839844 18.328125 Z M 9.839844 20.960938 "/> <path style=" stroke:none;fill-rule:nonzero;fill:rgb(93.72549%,26.666667%,26.666667%);fill-opacity:1;" d="M 13.042969 31.902344 L 9.273438 31.902344 C 8.957031 31.902344 8.703125 31.648438 8.703125 31.332031 L 8.703125 27.5625 C 8.703125 27.25 8.957031 26.996094 9.273438 26.996094 L 13.042969 26.996094 C 13.355469 26.996094 13.609375 27.25 13.609375 27.5625 L 13.609375 31.332031 C 13.609375 31.648438 13.355469 31.902344 13.042969 31.902344 Z M 9.839844 30.765625 L 12.472656 30.765625 L 12.472656 28.132812 L 9.839844 28.132812 Z M 9.839844 30.765625 "/> <path style=" stroke:none;fill-rule:nonzero;fill:rgb(93.72549%,26.666667%,26.666667%);fill-opacity:1;" d="M 13.042969 13.203125 L 9.273438 13.203125 C 8.957031 13.203125 8.703125 12.949219 8.703125 12.632812 C 8.703125 12.320312 8.957031 12.066406 9.273438 12.066406 L 12.472656 12.066406 L 12.472656 9.207031 L 7.539062 9.207031 C 7.222656 9.207031 6.96875 8.953125 6.96875 8.636719 C 6.96875 8.324219 7.222656 8.070312 7.539062 8.070312 L 13.042969 8.070312 C 13.355469 8.070312 13.609375 8.324219 13.609375 8.636719 L 13.609375 12.632812 C 13.609375 12.949219 13.355469 13.203125 13.042969 13.203125 Z M 13.042969 13.203125 "/> <path style=" stroke:none;fill-rule:nonzero;fill:rgb(93.72549%,26.666667%,26.666667%);fill-opacity:1;" d="M 25.675781 26.765625 L 16.992188 26.765625 C 16.675781 26.765625 16.421875 26.511719 16.421875 26.199219 L 16.421875 22.972656 C 16.421875 22.65625 16.675781 22.402344 16.992188 22.402344 L 25.675781 22.402344 C 25.988281 22.402344 26.242188 22.65625 26.242188 22.972656 L 26.242188 26.199219 C 26.242188 26.511719 25.988281 26.765625 25.675781 26.765625 Z M 17.558594 25.628906 L 25.105469 25.628906 L 25.105469 23.539062 L 17.558594 23.539062 Z M 17.558594 25.628906 "/> <path style=" stroke:none;fill-rule:nonzero;fill:rgb(93.72549%,26.666667%,26.666667%);fill-opacity:1;" d="M 18.894531 27.746094 C 18.582031 27.746094 18.324219 27.492188 18.324219 27.179688 L 18.324219 26.199219 C 18.324219 25.882812 18.582031 25.628906 18.894531 25.628906 C 19.207031 25.628906 19.464844 25.882812 19.464844 26.199219 L 19.464844 27.179688 C 19.464844 27.492188 19.210938 27.746094 18.894531 27.746094 Z M 18.894531 27.746094 "/> <path style=" stroke:none;fill-rule:nonzero;fill:rgb(93.72549%,26.666667%,26.666667%);fill-opacity:1;" d="M 18.894531 23.539062 C 18.582031 23.539062 18.324219 23.285156 18.324219 22.96875 L 18.324219 21.992188 C 18.324219 21.675781 18.582031 21.421875 18.894531 21.421875 C 19.207031 21.421875 19.464844 21.675781 19.464844 21.992188 L 19.464844 22.96875 C 19.464844 23.285156 19.210938 23.539062 18.894531 23.539062 Z M 18.894531 23.539062 "/> <path style=" stroke:none;fill-rule:nonzero;fill:rgb(93.72549%,26.666667%,26.666667%);fill-opacity:1;" d="M 21.332031 27.746094 C 21.019531 27.746094 20.765625 27.492188 20.765625 27.179688 L 20.765625 26.199219 C 20.765625 25.882812 21.019531 25.628906 21.332031 25.628906 C 21.648438 25.628906 21.902344 25.882812 21.902344 26.199219 L 21.902344 27.179688 C 21.902344 27.492188 21.648438 27.746094 21.332031 27.746094 Z M 21.332031 27.746094 "/> <path style=" stroke:none;fill-rule:nonzero;fill:rgb(93.72549%,26.666667%,26.666667%);fill-opacity:1;" d="M 21.332031 23.539062 C 21.019531 23.539062 20.765625 23.285156 20.765625 22.96875 L 20.765625 21.992188 C 20.765625 21.675781 21.019531 21.421875 21.332031 21.421875 C 21.648438 21.421875 21.902344 21.675781 21.902344 21.992188 L 21.902344 22.96875 C 21.902344 23.285156 21.648438 23.539062 21.332031 23.539062 Z M 21.332031 23.539062 "/> <path style=" stroke:none;fill-rule:nonzero;fill:rgb(93.72549%,26.666667%,26.666667%);fill-opacity:1;" d="M 23.769531 27.746094 C 23.457031 27.746094 23.203125 27.492188 23.203125 27.179688 L 23.203125 26.199219 C 23.203125 25.882812 23.457031 25.628906 23.769531 25.628906 C 24.085938 25.628906 24.339844 25.882812 24.339844 26.199219 L 24.339844 27.179688 C 24.339844 27.492188 24.085938 27.746094 23.769531 27.746094 Z M 23.769531 27.746094 "/> <path style=" stroke:none;fill-rule:nonzero;fill:rgb(93.72549%,26.666667%,26.666667%);fill-opacity:1;" d="M 23.769531 23.539062 C 23.457031 23.539062 23.203125 23.285156 23.203125 22.96875 L 23.203125 21.992188 C 23.203125 21.675781 23.457031 21.421875 23.769531 21.421875 C 24.085938 21.421875 24.339844 21.675781 24.339844 21.992188 L 24.339844 22.96875 C 24.339844 23.285156 24.085938 23.539062 23.769531 23.539062 Z M 23.769531 23.539062 "/> <path style=" stroke:none;fill-rule:nonzero;fill:rgb(93.72549%,26.666667%,26.666667%);fill-opacity:1;" d="M 29.625 30.019531 L 13.042969 30.019531 C 12.726562 30.019531 12.472656 29.761719 12.472656 29.449219 L 12.472656 19.71875 C 12.472656 19.40625 12.726562 19.152344 13.042969 19.152344 L 29.625 19.152344 C 29.941406 19.152344 30.195312 19.40625 30.195312 19.71875 L 30.195312 29.449219 C 30.195312 29.761719 29.941406 30.019531 29.625 30.019531 Z M 13.609375 28.878906 L 29.058594 28.878906 L 29.058594 20.289062 L 13.609375 20.289062 Z M 13.609375 28.878906 "/> </g> </svg>

<svg xmlns="http://www.w3.org/2000/svg" width="64" height="64"><path d="M44.477 33.95c-5.168 0-9.368-4.2-9.368-9.368 0-5.164 4.2-9.367 9.368-9.367 5.164 0 9.367 4.203 9.367 9.367 0 5.168-4.203 9.367-9.367 9.367Zm0-17.595c-4.54 0-8.23 3.692-8.23 8.227 0 4.54 3.69 8.23 8.23 8.23 4.535 0 8.23-3.69 8.23-8.23 0-4.535-3.691-8.227-8.23-8.227Zm0 0" style="stroke:none;fill-rule:nonzero;fill:#ef4444;fill-opacity:1"/><path d="M44.477 27.563a2.982 2.982 0 0 1-2.98-2.981 2.982 2.982 0 0 1 2.98-2.98 2.982 2.982 0 0 1 2.98 2.98 2.982 2.982 0 0 1-2.98 2.98Zm0-4.825a1.847 1.847 0 0 0-1.844 1.844c0 1.016.828 1.844 1.844 1.844a1.847 1.847 0 0 0 1.843-1.844 1.847 1.847 0 0 0-1.843-1.844Zm0 0" style="stroke:none;fill-rule:nonzero;fill:#ef4444;fill-opacity:1"/><path d="M45.832 23.16a.569.569 0 0 1-.262-1.074 3.593 3.593 0 0 0 1.93-3.191c0-.864-.309-1.7-.875-2.352a.57.57 0 0 1 .86-.746 4.724 4.724 0 0 1 1.152 3.098c0 1.77-.973 3.378-2.54 4.199a.547.547 0 0 1-.265.066ZM48.094 24.895a4.81 4.81 0 0 1-1.418-.22.569.569 0 1 1 .34-1.085 3.591 3.591 0 0 0 3.62-.89 3.585 3.585 0 0 0 1.048-2.282.572.572 0 0 1 .609-.527.566.566 0 0 1 .523.609 4.713 4.713 0 0 1-1.375 3.004 4.74 4.74 0 0 1-3.347 1.39ZM50.164 28.746a4.73 4.73 0 0 1-4.2-2.543.57.57 0 0 1 1.008-.527 3.597 3.597 0 0 0 5.548 1.054.565.565 0 0 1 .8.06.565.565 0 0 1-.058.8 4.727 4.727 0 0 1-3.098 1.156ZM48.602 32.926h-.04a4.727 4.727 0 0 1-3.007-1.38 4.73 4.73 0 0 1-1.172-4.765.566.566 0 0 1 .71-.37c.302.093.47.41.376.71a3.598 3.598 0 0 0 3.172 4.668c.312.023.55.297.527.61a.568.568 0 0 1-.566.527ZM41.898 33.566a.554.554 0 0 1-.43-.199 4.734 4.734 0 0 1 1.387-7.297.566.566 0 0 1 .766.242.564.564 0 0 1-.238.766 3.597 3.597 0 0 0-1.055 5.547.568.568 0 0 1-.43.941ZM36.703 29.277h-.039a.572.572 0 0 1-.527-.609 4.743 4.743 0 0 1 1.375-3.008 4.73 4.73 0 0 1 4.765-1.172.569.569 0 1 1-.34 1.086 3.591 3.591 0 0 0-3.62.89 3.594 3.594 0 0 0-1.047 2.282c-.02.3-.27.531-.567.531ZM42.484 23.793a.567.567 0 0 1-.504-.305 3.593 3.593 0 0 0-3.19-1.93c-.868 0-1.704.31-2.356.876a.568.568 0 0 1-.742-.86 4.724 4.724 0 0 1 3.097-1.152c1.77 0 3.379.973 4.2 2.539a.573.573 0 0 1-.239.77.589.589 0 0 1-.266.062ZM44.027 22.781a.622.622 0 0 1-.168-.023.571.571 0 0 1-.375-.715 3.591 3.591 0 0 0-.89-3.621 3.595 3.595 0 0 0-2.285-1.047.565.565 0 0 1-.524-.605.565.565 0 0 1 .606-.528 4.743 4.743 0 0 1 4.183 6.14.575.575 0 0 1-.547.4Zm0 0" style="stroke:none;fill-rule:nonzero;fill:#ef4444;fill-opacity:1"/><path d="M40.258 17.43a.571.571 0 0 1 0-1.14.57.57 0 0 1 0 1.14Zm0 0" style="stroke:none;fill-rule:nonzero;fill:#ef4444;fill-opacity:1"/><path d="M56.46 37.102H13.04a.57.57 0 0 1-.567-.57v-23.9c0-.312.254-.566.566-.566h43.422c.316 0 .57.254.57.567V36.53c0 .313-.254.57-.57.57ZM13.61 35.96h42.28V13.203H13.61Zm0 0" style="stroke:none;fill-rule:nonzero;fill:#ef4444;fill-opacity:1"/><path d="M29.625 20.29a.565.565 0 0 1-.402-.169.563.563 0 0 1 0-.8l7.082-7.083a.568.568 0 1 1 .804.805l-7.082 7.078a.559.559 0 0 1-.402.168ZM36.707 37.102a.575.575 0 0 1-.402-.168l-7.082-7.082a.568.568 0 1 1 .804-.805l7.082 7.082a.575.575 0 0 1 0 .805.582.582 0 0 1-.402.168Zm0 0" style="stroke:none;fill-rule:nonzero;fill:#ef4444;fill-opacity:1"/><path d="M49.79 43.129H19.71a.567.567 0 0 1-.565-.566V36.53a.57.57 0 0 1 .566-.57h30.078c.316 0 .57.258.57.57v6.032a.568.568 0 0 1-.57.566ZM20.28 41.992h28.942v-4.89H20.28Zm0 0" style="stroke:none;fill-rule:nonzero;fill:#ef4444;fill-opacity:1"/><path d="M24.133 43.129a.567.567 0 0 1-.567-.566v-2.086a.568.568 0 0 1 1.137 0v2.086a.568.568 0 0 1-.57.566ZM27.676 43.129a.568.568 0 0 1-.57-.566v-2.086a.568.568 0 0 1 1.136 0v2.086a.567.567 0 0 1-.566.566ZM31.21 43.129a.567.567 0 0 1-.565-.566v-2.086a.568.568 0 0 1 1.137 0v2.086a.568.568 0 0 1-.571.566ZM34.75 43.129a.567.567 0 0 1-.566-.566v-2.086a.568.568 0 0 1 1.137 0v2.086a.568.568 0 0 1-.571.566ZM38.29 43.129a.567.567 0 0 1-.567-.566v-2.086a.568.568 0 0 1 1.137 0v2.086a.568.568 0 0 1-.57.566ZM41.828 43.129a.567.567 0 0 1-.566-.566v-2.086a.568.568 0 0 1 1.137 0v2.086a.568.568 0 0 1-.57.566ZM45.367 43.129a.567.567 0 0 1-.566-.566v-2.086a.568.568 0 0 1 1.137 0v2.086a.568.568 0 0 1-.57.566ZM13.043 22.098h-3.77a.568.568 0 0 1-.57-.567v-3.77c0-.316.254-.57.57-.57h3.77c.312 0 .566.254.566.57v3.77a.567.567 0 0 1-.566.567ZM9.84 20.96h2.633v-2.633H9.84ZM13.043 31.902h-3.77a.568.568 0 0 1-.57-.57v-3.77c0-.312.254-.566.57-.566h3.77c.312 0 .566.254.566.567v3.769c0 .316-.254.57-.566.57ZM9.84 30.766h2.633v-2.633H9.84ZM13.043 13.203h-3.77a.568.568 0 1 1 0-1.137h3.2V9.207H7.539a.568.568 0 1 1 0-1.137h5.504c.312 0 .566.254.566.567v3.996c0 .316-.254.57-.566.57ZM25.676 26.766h-8.684a.568.568 0 0 1-.57-.567v-3.226c0-.317.254-.57.57-.57h8.684c.312 0 .566.253.566.57v3.226a.567.567 0 0 1-.566.567Zm-8.117-1.137h7.546v-2.09H17.56Zm0 0" style="stroke:none;fill-rule:nonzero;fill:#ef4444;fill-opacity:1"/><path d="M18.895 27.746a.57.57 0 0 1-.57-.566v-.98a.571.571 0 0 1 1.14 0v.98a.568.568 0 0 1-.57.566ZM18.895 23.54a.571.571 0 0 1-.57-.571v-.977a.571.571 0 0 1 1.14 0v.977c0 .316-.254.57-.57.57ZM21.332 27.746a.567.567 0 0 1-.566-.566v-.98a.568.568 0 1 1 1.136 0v.98a.568.568 0 0 1-.57.566ZM21.332 23.54a.568.568 0 0 1-.566-.571v-.977a.568.568 0 1 1 1.136 0v.977c0 .316-.254.57-.57.57ZM23.77 27.746a.567.567 0 0 1-.567-.566v-.98a.568.568 0 1 1 1.137 0v.98a.568.568 0 0 1-.57.566ZM23.77 23.54a.568.568 0 0 1-.567-.571v-.977a.568.568 0 1 1 1.137 0v.977c0 .316-.254.57-.57.57Zm0 0" style="stroke:none;fill-rule:nonzero;fill:#ef4444;fill-opacity:1"/><path d="M29.625 30.02H13.043a.571.571 0 0 1-.57-.57v-9.731c0-.313.254-.567.57-.567h16.582c.316 0 .57.254.57.567v9.73c0 .313-.254.57-.57.57Zm-16.016-1.141h15.45v-8.59h-15.45Zm0 0" style="stroke:none;fill-rule:nonzero;fill:#ef4444;fill-opacity:1"/></svg>
